src/assets/filled/Category2.svg

<svg width="24" height="24" viewBox="0 0 24 24"  xmlns="http://www.w3.org/2000/svg">
<path d="M18.6699 2H16.7699C14.5899 2 13.4399 3.15 13.4399 5.33V7.23C13.4399 9.41 14.5899 10.56 16.7699 10.56H18.6699C20.8499 10.56 21.9999 9.41 21.9999 7.23V5.33C21.9999 3.15 20.8499 2 18.6699 2Z" />
<path d="M7.24 13.4297H5.34C3.15 13.4297 2 14.5797 2 16.7597V18.6597C2 20.8497 3.15 21.9997 5.33 21.9997H7.23C9.41 21.9997 10.56 20.8497 10.56 18.6697V16.7697C10.57 14.5797 9.42 13.4297 7.24 13.4297Z" />
<path d="M6.29 10.58C8.6593 10.58 10.58 8.6593 10.58 6.29C10.58 3.9207 8.6593 2 6.29 2C3.9207 2 2 3.9207 2 6.29C2 8.6593 3.9207 10.58 6.29 10.58Z" />
<path d="M17.7099 21.9999C20.0792 21.9999 21.9999 20.0792 21.9999 17.7099C21.9999 15.3406 20.0792 13.4199 17.7099 13.4199C15.3406 13.4199 13.4199 15.3406 13.4199 17.7099C13.4199 20.0792 15.3406 21.9999 17.7099 21.9999Z" />
</svg>

<?xml version="1.0" encoding="UTF-8"?>
<svg width="24" height="24" viewBox="0 0 24 24" xmlns="http://www.w3.org/2000/svg">
 <path d="m18.67 2h-1.9c-2.18 0-3.33 1.15-3.33 3.33v1.9c0 2.18 1.15 3.33 3.33 3.33h1.9c2.18 0 3.33-1.15 3.33-3.33v-1.9c0-2.18-1.15-3.33-3.33-3.33z"/>
 <path d="m7.24 13.43h-1.9c-2.19 0-3.34 1.15-3.34 3.33v1.9c0 2.19 1.15 3.34 3.33 3.34h1.9c2.18 0 3.33-1.15 3.33-3.33v-1.9c0.01-2.19-1.14-3.34-3.32-3.34z"/>
 <path d="m6.29 10.58c2.3693 0 4.29-1.9207 4.29-4.29s-1.9207-4.29-4.29-4.29-4.29 1.9207-4.29 4.29 1.9207 4.29 4.29 4.29z"/>
 <path d="m17.71 22c2.3693 0 4.29-1.9207 4.29-4.29s-1.9207-4.29-4.29-4.29-4.29 1.9207-4.29 4.29 1.9207 4.29 4.29 4.29z"/>
</svg>
